!!!OTL: 777. Scheiden und Meiden.
!!!ODT: 1880
!!!ARE: Europa, Mitteleuropa, Deutschland, Hessen, Nassau, Witzenhausen
!!!SCT: E0777
!!!TXL: @@DE
!!!YEM: Copyright 1995, estate of Helmut Schaffrath.
**kern	**text
*ICvox	*
*M4/4	*
*met(c)	*
*k[b-]	*
*F:	*
=1	=1
!LO:TX:a:t=Mäßig.	!
!LO:TX:a:t=Aus dem Naſſauerlande 1880.	!
{4f	Wo
8fL	das
8gJ	.
4.a	kla-
8a	-re
=2	=2
4g	Waſ-
4e	-ſer
4f	flie-
4c}	-ßet,
=3	=3
{4a	da
8aL	ver-
8b-J	.
4.cc	-wei-
8cc	-let
=4	=4
4b-	ſtets
8gL	mein
8b-J	.
2a}	Schatʒ;
=5	=5
{4cc	mei-
8ccL	-net-
8ee-J	.
2dd	-halb,
=6	=6
4dd	dei-
8ddL	-net-
8ffJ	.
2een}	-halb.
=7	=7
{4.ff	Aus
8cc	dem
(8eeL	Lan-
8ddJ)	.
4cc	-de,
=8	=8
4.dd	aus
8a	dem
8ccL	Lan-
8b-J	.
4a}	-de,
=9	=9
{4f	aus
8fL	dem
8aJ	.
4cc	Lan-
4cc	-de
=10	=10
4b-	muß
8gL	ich
8b-J	.
4a	fort.
4r}	.
==	==
!!!AGN: Abschieds - Lied, Wander - Lied, Liebe
!!!ONB: ESAC (Essen Associative Code) Database: ERK2
!!!AMT: simple quadruple
!!!AIN: vox
!!!EED: Helmut Schaffrath
!!!EEV: 1.0
!!!GTL: Abschieds- und Wanderlieder
!!!URL-scan: https://rosdok.uni-rostock.de/mcrviewer/recordIdentifier/rosdok_ppn745177662/iview2/phys_0583.iview2?x=115.65719516421564&y=254.01655204081908&scale=0.7029437510502773&rotation=0&layout=singlePageLayout
!!!ENC: Anna Maria Matuszewska
!!!EEV: 2024/12/17
*-	*-
